dist/assets/img/feedback/instagram.svg

<svg width="27" height="27" viewBox="0 0 27 27" fill="none" xmlns="http://www.w3.org/2000/svg">
<path fill-rule="evenodd" clip-rule="evenodd" d="M0 13.5C0 6.04416 6.04416 0 13.5 0C20.9558 0 27 6.04416 27 13.5C27 20.9558 20.9558 27 13.5 27C6.04416 27 0 20.9558 0 13.5Z" fill="url(#paint0_linear)"/>
<mask id="mask0" mask-type="alpha" maskUnits="userSpaceOnUse" x="0" y="0" width="27" height="27">
<path fill-rule="evenodd" clip-rule="evenodd" d="M0 13.5C0 6.04416 6.04416 0 13.5 0C20.9558 0 27 6.04416 27 13.5C27 20.9558 20.9558 27 13.5 27C6.04416 27 0 20.9558 0 13.5Z" fill="white"/>
</mask>
<g mask="url(#mask0)">
<path fill-rule="evenodd" clip-rule="evenodd" d="M13.501 6.2998C11.5455 6.2998 11.3001 6.30835 10.5321 6.34331C9.76563 6.37841 9.24242 6.49976 8.78462 6.67781C8.31106 6.86171 7.90936 7.10771 7.50916 7.50807C7.10865 7.90827 6.86265 8.30998 6.67815 8.78338C6.49965 9.24134 6.37814 9.76469 6.34364 10.5309C6.30929 11.2989 6.30029 11.5445 6.30029 13.4999C6.30029 15.4553 6.30899 15.7 6.34379 16.468C6.37904 17.2345 6.5004 17.7577 6.6783 18.2155C6.86235 18.689 7.10835 19.0907 7.50871 19.4909C7.90876 19.8914 8.31046 20.138 8.78372 20.3219C9.24182 20.5 9.76518 20.6214 10.5315 20.6565C11.2995 20.6914 11.5448 20.7 13.5001 20.7C15.4556 20.7 15.7003 20.6914 16.4683 20.6565C17.2348 20.6214 17.7586 20.5 18.2167 20.3219C18.6901 20.138 19.0912 19.8914 19.4913 19.4909C19.8918 19.0907 20.1378 18.689 20.3223 18.2156C20.4993 17.7577 20.6208 17.2343 20.6568 16.4681C20.6913 15.7001 20.7003 15.4553 20.7003 13.4999C20.7003 11.5445 20.6913 11.2991 20.6568 10.531C20.6208 9.76454 20.4993 9.24134 20.3223 8.78353C20.1378 8.30998 19.8918 7.90827 19.4913 7.50807C19.0908 7.10756 18.6903 6.86156 18.2163 6.67781C17.7573 6.49976 17.2338 6.37841 16.4672 6.34331C15.6992 6.30835 15.4547 6.2998 13.4987 6.2998H13.501ZM12.855 7.59665C13.0467 7.59635 13.2606 7.59665 13.5009 7.59665C15.4234 7.59665 15.6512 7.60355 16.4104 7.63805C17.1124 7.67015 17.4934 7.78745 17.7472 7.886C18.0832 8.0165 18.3228 8.1725 18.5746 8.42451C18.8266 8.67651 18.9826 8.91651 19.1134 9.25252C19.212 9.50602 19.3294 9.88702 19.3614 10.589C19.3959 11.348 19.4034 11.576 19.4034 13.4976C19.4034 15.4191 19.3959 15.6471 19.3614 16.4061C19.3293 17.1081 19.212 17.4891 19.1134 17.7426C18.9829 18.0786 18.8266 18.3179 18.5746 18.5697C18.3226 18.8217 18.0833 18.9777 17.7472 19.1082C17.4937 19.2072 17.1124 19.3242 16.4104 19.3563C15.6514 19.3908 15.4234 19.3983 13.5009 19.3983C11.5784 19.3983 11.3505 19.3908 10.5915 19.3563C9.88951 19.3239 9.50851 19.2066 9.25456 19.1081C8.91855 18.9776 8.67855 18.8216 8.42655 18.5696C8.17454 18.3176 8.01854 18.0782 7.88774 17.742C7.78919 17.4885 7.67174 17.1075 7.63979 16.4055C7.60529 15.6465 7.59839 15.4185 7.59839 13.4958C7.59839 11.573 7.60529 11.3462 7.63979 10.5872C7.67189 9.88522 7.78919 9.50422 7.88774 9.25042C8.01824 8.91441 8.17454 8.67441 8.42655 8.42241C8.67855 8.1704 8.91855 8.0144 9.25456 7.8836C9.50836 7.7846 9.88951 7.6676 10.5915 7.63535C11.2557 7.60535 11.5131 7.59635 12.855 7.59485V7.59665ZM17.3443 8.79266C16.8673 8.79266 16.4803 9.17921 16.4803 9.65637C16.4803 10.1334 16.8673 10.5204 17.3443 10.5204C17.8213 10.5204 18.2083 10.1334 18.2083 9.65637C18.2083 9.17936 17.8213 8.79236 17.3443 8.79236V8.79266ZM13.5012 9.802C11.4592 9.802 9.80362 11.4576 9.80362 13.4995C9.80362 15.5415 11.4592 17.1963 13.5012 17.1963C15.5431 17.1963 17.1981 15.5415 17.1981 13.4995C17.1981 11.4576 15.543 9.802 13.501 9.802H13.5012ZM13.5009 11.0995C14.8263 11.0995 15.9009 12.1739 15.9009 13.4995C15.9009 14.8249 14.8263 15.8995 13.5009 15.8995C12.1753 15.8995 11.1008 14.8249 11.1008 13.4995C11.1008 12.1739 12.1753 11.0995 13.5009 11.0995Z" fill="white"/>
</g>
<defs>
<linearGradient id="paint0_linear" x1="22.3269" y1="1.55769" x2="7.78846" y2="23.8846" gradientUnits="userSpaceOnUse">
<stop stop-color="#536DE8"/>
<stop offset="0.366894" stop-color="#A84CA7"/>
<stop offset="0.751381" stop-color="#FC3436"/>
<stop offset="1" stop-color="#FFA10D"/>
</linearGradient>
</defs>
</svg>

<svg width="27" height="27" viewBox="0 0 27 27" fill="none" xmlns="http://www.w3.org/2000/svg"><path fill-rule="evenodd" clip-rule="evenodd" d="M0 13.5C0 6.044 6.044 0 13.5 0S27 6.044 27 13.5 20.956 27 13.5 27 0 20.956 0 13.5z" fill="url(#paint0_linear)"/><mask id="mask0" maskUnits="userSpaceOnUse" x="0" y="0" width="27" height="27"><path fill-rule="evenodd" clip-rule="evenodd" d="M0 13.5C0 6.044 6.044 0 13.5 0S27 6.044 27 13.5 20.956 27 13.5 27 0 20.956 0 13.5z" fill="#fff"/></mask><g mask="url(#mask0)"><path fill-rule="evenodd" clip-rule="evenodd" d="M13.501 6.3c-1.955 0-2.2.008-2.969.043-.766.035-1.29.157-1.747.335-.474.184-.876.43-1.276.83-.4.4-.646.802-.83 1.275-.18.458-.3.982-.335 1.748-.035.768-.044 1.013-.044 2.969 0 1.955.009 2.2.044 2.968.035.767.156 1.29.334 1.747.184.474.43.876.83 1.276.4.4.802.647 1.276.83.458.179.981.3 1.747.335.768.035 1.014.044 2.97.044 1.955 0 2.2-.009 2.967-.043.767-.036 1.29-.157 1.749-.335.473-.184.874-.43 1.274-.831.4-.4.647-.802.831-1.275.177-.458.299-.982.335-1.748.034-.768.043-1.013.043-2.968 0-1.956-.009-2.2-.043-2.969-.036-.766-.158-1.29-.335-1.747a3.534 3.534 0 00-.83-1.276 3.536 3.536 0 00-1.276-.83c-.459-.178-.982-.3-1.749-.335C15.7 6.308 15.455 6.3 13.5 6.3h.002zm-.646 1.297h.646c1.922 0 2.15.007 2.91.041.701.032 1.082.15 1.336.248.336.13.576.286.828.539.252.252.408.492.538.828.099.253.216.634.248 1.336.035.759.042.987.042 2.909 0 1.921-.007 2.15-.042 2.908-.032.702-.149 1.083-.248 1.337-.13.336-.286.575-.538.827a2.227 2.227 0 01-.828.538c-.253.1-.635.216-1.337.248-.759.035-.987.042-2.91.042-1.922 0-2.15-.007-2.909-.042-.701-.032-1.082-.15-1.336-.248a2.23 2.23 0 01-.828-.538 2.231 2.231 0 01-.54-.828c-.098-.254-.215-.634-.247-1.337-.035-.759-.042-.987-.042-2.91 0-1.922.007-2.149.042-2.908.032-.702.15-1.083.248-1.337a2.23 2.23 0 01.539-.828c.252-.252.492-.408.828-.538.253-.1.635-.216 1.336-.249.665-.03.922-.039 2.264-.04v.002zm4.49 1.196a.864.864 0 10-.001 1.728.864.864 0 000-1.729zM13.5 9.802a3.698 3.698 0 100 7.395 3.698 3.698 0 000-7.395zm0 1.298a2.4 2.4 0 110 4.8 2.4 2.4 0 010-4.8z" fill="#fff"/></g><defs><linearGradient id="paint0_linear" x1="22.327" y1="1.558" x2="7.788" y2="23.885" gradientUnits="userSpaceOnUse"><stop stop-color="#536DE8"/><stop offset=".367" stop-color="#A84CA7"/><stop offset=".751" stop-color="#FC3436"/><stop offset="1" stop-color="#FFA10D"/></linearGradient></defs></svg>
